X:202
T:The Nightingale
R:jig
M:6/8
L:1/8
K:Ador
|:EAA A2B|cAd cAG|EDE G3|DEF GFG|
EAG A2B|cAB cde|~g3 ege|1 dBG A2G:|2 dBG A3||
|:aea aef|gdg gdg|aea aef|gfe def|
g2e fed|edB GBd|~g3 ege|1 dBG A2G:|2 dBG A3||

